flaticon/productivity/target-1.svg

<svg xmlns="http://www.w3.org/2000/svg" width="32" height="32" viewBox="0 0 24 24">
    <path d="M0 9.0625L5.339844 9.0625 5.339844 5.339844 9.0625 5.339844 9.0625 0 0 0zM1.019531 1.019531L8.042969 1.019531 8.042969 4.320312 4.320312 4.320312 4.320312 8.042969 1.019531 8.042969zM14.9375 0L14.9375 5.339844 18.660156 5.339844 18.660156 9.0625 24 9.0625 24 0zM22.980469 8.042969L19.679688 8.042969 19.679688 4.320312 15.957031 4.320312 15.957031 1.019531 22.980469 1.019531zM18.660156 18.660156L14.9375 18.660156 14.9375 24 24 24 24 14.9375 18.660156 14.9375zM19.679688 15.957031L22.980469 15.957031 22.980469 22.980469 15.957031 22.980469 15.957031 19.679688 19.679688 19.679688zM5.339844 14.9375L0 14.9375 0 24 9.0625 24 9.0625 18.660156 5.339844 18.660156zM8.042969 19.679688L8.042969 22.980469 1.019531 22.980469 1.019531 15.957031 4.320312 15.957031 4.320312 19.679688zM8.042969 19.679688"/>
</svg>

<svg xmlns="http://www.w3.org/2000/svg" width="32" height="32" viewBox="0 0 24 24">
    <path d="M0 9.063h5.34V5.34h3.723V0H0zM1.02 1.02h7.023v3.3H4.32v3.723h-3.3zm0 0M14.938 0v5.34h3.722v3.723H24V0zm8.042 8.043h-3.3V4.32h-3.723v-3.3h7.023zm0 0M18.66 18.66h-3.723V24H24v-9.063h-5.34zm1.02-2.703h3.3v7.023h-7.023v-3.3h3.723zm0 0M5.34 14.938H0V24h9.063v-5.34H5.34zm2.703 4.742v3.3H1.02v-7.023h3.3v3.723zm0 0"/>
</svg>
